X:58
%%score 1 2
T:Go from my window
M:C
L:1/8
K:A
V:1 clef-treble
V:2 clef-bass octave=-1
V:1 
[CEA]2ABc2B>B&x6[DG]2|[CA]8|[EGB]2Bcd2c>c&x6[EA]2|[EGB]6B2|
w:Go from my win-dow, love, go; Go from my win-dow, my dear; The
V:2
A,6E2|A4A,4|E6A,2|(E4E,4)|
V:1
B2Bcd2(cB)&[E=G]4[DF]4|ABcA[E^GB]2E2&[DF]2[CE]2x4|[EA]2[CA][DB] [EAc]2[DGB]2|[CA]8||
w:wind and the rain Will* drive you back a-gain, You can-not be lod-ged here.
V:2
E4B,4|D2A,2E2D2|C2F2E2E2|A8||

